X: 01030
T: CROWES ON THE FIELD
C: Bob McQuillen Fall'74
B: Bob's Note Book 1 #30
%R: reel
Z: 2019 John Chambers <jc:trillian.mit.edu>
M: C
L: 1/8
K: D
FE \
| DCDE FDFA | dcde d2A2 | DCDE FDFA | GFED E2A2 |
| DCDE FDFA | dcde f2d2 | BcdB A2d2 | fedc d2 :|
|: fe \
| dcde f2d2 | edef d2A2 | GBAG FAdf | edef e4 |
| dcde f2d2 | edef d2A2 | GBAG FAGF | EDEF D2 :|
%%begintext align
%% For Mike and Steve Crowe.
%% In Memoriam Central H.S.
%% Soccer Season 1974. [illegible]!!
%% I know - There were some other groups, too!)
%%endtext

%%sep 1 1 500

%%sep 1 1 500

